X: 20936
T: Joy Be With You
R: jig
M: 6/8
K: Dmajor
f2B ABd|f2B ABd|f2a e2f|dBA ABd|
f2B ABd|fdB ABd|f2a e2f|dBA ABd:|
|:faa eaa|fdB ABd|faa eaa|fdB ABd|
faa eaa|faa eaa|fga bge|fdB ABd:|

